X:36
T:Elizabeth Kelly's / Whinny Hills of Leitrim
R:slipjig
D:Snug in the Blanket: Paddy O'Brien, Jamie Gans, Daithi Sproule
Z:Julie Ross
M:9/8
K:Ador
"Elizabeth Kelly's Delight"
ABA A2B AGE | A2E G2E DEG | ABA A2B AGE | GAG G2E DEG :|
|:c2A BAG AGE | c2A BGE DEG | c2c BAG AGE | G2G G2E DEG :|
K:Dmix
"The Whinny Hills of Leitrim"
A2A dcA d2c|A2A dcA GFG|ABA dcA d2d|1 eaa ege dBG:|2 eaa ege dBA||
K:G
|:GBB GBd gag|GBB GAG FED|GBB GBd g2g|1 fgf efe dBA:|2 fgf efe dBG||
